!!!!SEGMENT: pl-kk--kk-i-32--001-003_anonim--missa-sabbativa-sanctus.krn
!!!cenid: 17xx:2238
!!!COM: Anonim
!!!COM-rismID: pe30004985
!!!CDT:
!!!CNT:
!!!OPR: Missa Sabbativa
!!!OTL: Sanctus
!!!OMV: 003
!!!PDT:
!!!AGN: Sacred; Mass
!!!YEC: Copyright 2022 Narodowy Instytut Fryderyka Chopina (https://polishscores.org)
!!!YEM: License CC-BY-4.0 (https://creativecommons.org/licenses/by/4.0)
!!!SMS-siglum: PL-Kk
!!!SMS-shelfmark: Kk.I.32
!!!SMS-shelfwork: 001-003 M
!!!SMS-variant:
!!!SMS-altvar:
!!!NIFC-rismSourceID: 1001156562
!!!NIFC-rismChildID: 1001156562
!!!NIFC-islandoraID: pl-kk:15507
!!!URL-pdf-islandora: https://repozytorium.nifc.pl/islandora/object/pl-kk%3A15507/datastream/PDF/view
!!!URL-scan: https://polish.musicsources.pl/pl/lokalizacje/galeria/rekopisy/7125/1 @EN{Scan on Polish Music Sources Website} @PL{Skany w portalu Dziedzictwo Muzyki Polskiej w otwartym dostępie}
!!!IIIF:
!!!ONB-nifc: UWAGA: części Mszy: 1. Kyrie, 2. Et in terra, 3. Sanctus, 4. Agnus Dei.
!!!AIN: 1 alto 1 bass 2 tenor
!!!key: F
**kern	**text	**kern	**text	**kern	**text	**kern	**text
*part4	*	*part3	*	*part2	*	*part1	*
*staff4	*	*staff3	*	*staff2	*	*staff1	*
*>[A,B,C,B]	*	*>[A,B,C,B]	*	*>[A,B,C,B]	*	*>[A,B,C,B]	*
*>A	*	*>A	*	*>A	*	*>A	*
*I"Baſso.	*	*I"Tenore in Chorali.	*	*I"Tenore 1mo.	*	*I"Alto	*
*mI"Basso	*	*mI"Tenore II	*	*mI"Tenore I	*	*	*
*I'B	*	*I'T 2	*	*I'T 1	*	*I'A	*
*Ibass	*	*Itenor	*	*Itenor	*	*Ialto	*
*clefF3	*	*clefC3	*	*clefC3	*	*clefC3	*
*mclefF4	*	*mclefGv2	*	*mclefGv2	*	*mclefGv2	*
*k[b-]	*	*k[b-]	*	*k[b-]	*	*k[b-]	*
*F:	*	*F:	*	*F:	*	*F:	*
*M2/1	*	*M2/1	*	*M2/1	*	*M2/1	*
*met(C|)	*	*met(C|)	*	*met(C|)	*	*met(C|)	*
*mmet(c|)	*	*mmet(c|)	*	*mmet(c|)	*	*mmet(c|)	*
=1-	=1-	=1-	=1-	=1-	=1-	=1-	=1-
*lig	*	*lig	*	*	*	*	*
!LO:TX:a:Bi:t=Contra Baſso.:mod=	!	!	!	!	!	!	!
1F	San-	1F	San-	1c	San-	0f	San-
!	!	!	!	!LO:TX:t=P:problem=kreska pseudotaktowa	!	!	!
1D	.	1A	.	1d	.	.	.
*Xlig	*	*Xlig	*	*	*	*	*
=2-	=2-	=2-	=2-	=2-	=2-	=2-	=2-
*	*	*lig	*	*	*	*	*
!LO:TX:t=P:problem=kreska pseudotaktowa	!	!	!	!	!	!	!
!	!	!	!	!	!	!LO:TX:t=P:problem=kreska pseudotaktowa	!
1C	.	1c	.	2G/	.	1e	.
.	.	.	.	1A	.	.	.
!	!	!LO:TX:t=P:problem=kreska pseudotaktowa	!	!	!	!	!
1D	.	1A	.	.	.	0f	.
!	!	!	!	!LO:TX:t=P:problem=kreska pseudotaktowa	!	!	!
.	.	.	.	2F/	.	.	.
*	*	*Xlig	*	*	*	*	*
=3-	=3-	=3-	=3-	=3-	=3-	=3-	=3-
*	*	*lig	*	*	*	*	*
1BB-	.	1d	.	1B-	.	.	.
!LO:TX:t=P:problem=kreska pseudotaktowa	!	!	!	!	!	!	!
1C	.	1c	.	1G	.	1e	-ctus
*	*	*Xlig	*	*	*	*	*
=4-	=4-	=4-	=4-	=4-	=4-	=4-	=4-
*lig	*	*lig	*	*	*	*	*
1F	.	1A	.	2F/	.	1c	San-
.	.	.	.	1c	.	.	.
!	!	!	!	!	!	!LO:TX:t=P:problem=kreska pseudotaktowa	!
1D	.	1F	.	.	.	1d	.
!	!	!	!	!LO:TX:t=P:problem=kreska pseudotaktowa	!	!	!
.	.	.	.	2Bn/	.	.	.
*Xlig	*	*Xlig	*	*	*	*	*
=5-	=5-	=5-	=5-	=5-	=5-	=5-	=5-
!	!	!	!	!LO:MO:mod=*null:null	!	!LO:MO:mod=*null:null	!
*	*	*	*	*2\right	*	*2\right	*
2C/	.	0G	.	2c\	.	2e\	.
2BB-/	.	.	.	2d\	.	1f	.
1C	.	.	.	1c	.	.	.
.	.	.	.	.	.	2e\	.
=6-	=6-	=6-	=6-	=6-	=6-	=6-	=6-
!	!LO:MO:mod=-ctus	!	!LO:MO:mod=-ctus	!	!LO:MO:mod=-ctus	!	!LO:MO:mod=-ctus
0F;	-ctus.	0F;	-ct(us)	0c;	-ctus.	0f;	-ctus.
=7||	=7||	=7||	=7||	=7||	=7||	=7||	=7||
!LO:MO:mod=*null:null	!	!LO:MO:mod=*null:null	!	!	!	!LO:MO:mod=*null:null	!
*M2/1	*	*M2/1	*	*	*	*M2/1	*
*met(C|)	*	*met(C|)	*	*	*	*met(C|)	*
1.F	San-	0f	San-	0A	San-	0c	San-
4E/	.	.	.	.	.	.	.
!LO:TX:t=P:problem=kreska pseudotaktowa	!	!	!	!	!	!	!
4D/	.	.	.	.	.	.	.
=8-	=8-	=8-	=8-	=8-	=8-	=8-	=8-
!	!	!	!	!	!	!LO:TX:t=P:problem=kreska pseudotaktowa	!LO:MO:mod=-ctus
1C	.	1e	.	1G	.	1c	-ct(us)
1.G	.	0d	.	1.g	.	1.B-	San-
.	.	.	.	.	.	.	.
=9-	=9-	=9-	=9-	=9-	=9-	=9-	=9-
!LO:MO:mod=*null:null	!	!	!	!	!	!	!
*2\right	*	*	*	*	*	*	*
*custos:E	*	*	*	*	*	*	*
.	.	.	.	.	.	.	.
!LO:TX:t=P:problem=kreska pseudotaktowa	!	!	!	!	!	!	!
2F\	.	.	.	2d\	.	2A/	.
!LO:LB:g=original	!	!	!	!	!	!	!
*	*	*lig	*	*	*	*	*
2E/	.	1g	.	1e	.	2G/	.
2C/	.	.	.	.	.	1c\	.
=10-	=10-	=10-	=10-	=10-	=10-	=10-	=10-
*	*	*custos:e	*	*	*	*	*
!	!	!LO:TX:t=P:problem=kreska pseudotaktowa	!	!LO:TX:t=P:problem=kreska pseudotaktowa	!	!	!
1D	.	1f	.	1d	.	.	.
*	*	*	*	*	*	*custos:c	*
!	!	!	!	!	!	!LO:TX:t=P:problem=kreska pseudotaktowa	!
!	!	!	!	!	!	!LO:SIC:s=2Bni	!
.	.	.	.	.	.	2B-/	.
*	*	*Xlig	*	*	*	*	*
!	!	!LO:LB:g=original	!	!LO:LB:g=original	!	!LO:LB:g=original	!
!!LO:MO:ori
!	!	!	!	!LO:TX:t=P:problem=niepotrzebnie powtórzony fragment	!	!	!
1ryy	.	1ryy	.	1e	.	1ryy	.
=11-	=11-	=11-	=11-	=11-	=11-	=11-	=11-
1ryy	.	1ryy	.	1d	.	1ryy	.
*	*	*lig	*	*	*	*	*
!!LO:MO:end
1C	.	1e	.	2e\	.	2c/	-ctus
*	*	*	*	*	*	*	*ij
.	.	.	.	1c\	.	1g\	San-
=12-	=12-	=12-	=12-	=12-	=12-	=12-	=12-
1G	.	1d	.	.	.	.	.
.	.	.	.	2Bn/	.	2g\	.
*	*	*Xlig	*	*	*	*	*
!LO:N:vis=0	!	!LO:N:vis=0	!	!LO:N:vis=0	!LO:MO:mod=-ctus	!LO:N:vis=0	!
1C;	-ctus	1c;	-ctus	1c;	-ctus.	1e;	-ctus
*	*	*	*	*	*	*	*Xij
=13||	=13||	=13||	=13||	=13||	=13||	=13||	=13||
!LO:MO:mod=*null:null	!	!LO:MO:mod=*null:null	!	!	!	!LO:MO:mod=*null:null	!
*M2/1	*	*M2/1	*	*	*	*M2/1	*
*met(C|)	*	*met(C|)	*	*	*	*met(C|)	*
*	*	*lig	*	*lig	*	*	*
1F	San-	1f	San-	1A	San-	0c	San-
!LO:TX:t=P:problem=kreska pseudotaktowa	!	!	!	!	!	!	!
1C	.	1e	.	1G	.	.	.
*	*	*Xlig	*	*Xlig	*	*	*
=14-	=14-	=14-	=14-	=14-	=14-	=14-	=14-
*	*	*lig	*	*lig	*	*	*
0D	.	1d	.	1F	.	2A/	.
.	.	.	.	.	.	1F	.
!	!	!LO:TX:t=P:problem=kreska pseudotaktowa	!	!LO:TX:t=P:problem=kreska pseudotaktowa	!	!	!
.	.	1A	.	1A	.	.	.
.	.	.	.	.	.	1f\	.
*	*	*Xlig	*	*Xlig	*	*	*
=15-	=15-	=15-	=15-	=15-	=15-	=15-	=15-
*	*	*lig	*	*lig	*	*	*
1BB-	.	1d	.	1B-	.	.	.
!	!	!	!	!	!	!LO:TX:t=P:problem=kreska pseudotaktowa	!
.	.	.	.	.	.	2f\	.
*	*	*	*	*	*	*lig	*
1C	.	1c	.	1G	.	1e	.
*	*	*Xlig	*	*Xlig	*	*	*
=16-	=16-	=16-	=16-	=16-	=16-	=16-	=16-
*	*	*lig	*	*	*	*	*
!LO:TX:t=P:problem=kreska pseudotaktowa	!	!	!	!	!	!	!
1F	.	1A	.	2F/	.	1c	.
.	.	.	.	1A	.	.	.
*	*	*	*	*	*	*Xlig	*
!	!	!LO:TX:t=P:problem=kreska pseudotaktowa	!	!	!	!	!
2D/	.	1F	.	.	.	1d	.
!	!	!	!	!LO:TX:t=P:problem=kreska pseudotaktowa	!	!	!
2BB-/	.	.	.	2B-/	.	.	.
*	*	*Xlig	*	*	*	*	*
=17-	=17-	=17-	=17-	=17-	=17-	=17-	=17-
*	*	*lig	*	*	*	*	*
1F	.	1A	.	2A/	.	2c\	.
!	!	!	!	!	!	!LO:TX:t=P:problem=kreska pseudotaktowa	!
.	.	.	.	2F/	.	2d\	.
!LO:TX:t=P:problem=rozdzielacz słów / znak oddechu:global	!	!	!	!	!	!	!
2C,</	-ctus	1c	.	2G/	.	2e\	.
!	!	!	!	!LO:TX:t=P:problem=kreska pseudotaktowa	!	!	!
1c\	San-	.	.	2A/	.	2f\	.
*	*	*Xlig	*	*	*	*	*
=18-	=18-	=18-	=18-	=18-	=18-	=18-	=18-
*	*	*lig	*	*	*	*	*
!	!	!	!	!	!	!LO:TX:t=P:problem=kreska pseudotaktowa	!
.	.	1d	.	1G	.	1g	-ctus
!LO:TX:t=P:problem=kreska pseudotaktowa	!	!	!	!	!	!	!
!LO:SIC:s=2BNi	!	!	!	!	!	!	!
2B-\	.	.	.	.	.	.	.
2c\	.	1c	.	2A/	.	2e\	San-
2C/	.	.	.	1G/	.	1c\	.
*	*	*Xlig	*	*	*	*	*
=19-	=19-	=19-	=19-	=19-	=19-	=19-	=19-
*lig	*	*lig	*	*	*	*	*
1D	.	1f	.	.	.	.	.
*	*	*	*	*custos:G	*	*	*
!	!	!	!	!LO:TX:t=P:problem=kreska pseudotaktowa	!	!LO:TX:t=P:problem=kreska pseudotaktowa	!
.	.	.	.	2F/	.	2Bn/	.
!	!	!	!	!LO:LB:g=original	!	!	!
*	*	*	*	*	*	*lig	*
1C	.	1e	.	2G/	.	1c	.
.	.	.	.	1c\	.	.	.
*Xlig	*	*Xlig	*	*	*	*	*
=20-	=20-	=20-	=20-	=20-	=20-	=20-	=20-
*	*	*lig	*	*	*	*	*
1G	.	1d	.	.	.	1d	.
.	.	.	.	2Bn/	.	.	.
!LO:TX:t=P:problem=kreska pseudotaktowa	!	!	!	!	!	!	!
1C	-ctus	1c	.	1c	-ctus	1e	.
*	*	*Xlig	*	*	*	*Xlig	*
!LO:LB:g=original	!	!	!	!	!	!	!
=21-	=21-	=21-	=21-	=21-	=21-	=21-	=21-
*lig	*	*lig	*	*	*	*	*
!	!	!	!	!LO:TX:t=P:problem=kreska pseudotaktowa	!	!	!
1F	San-	1A	.	1c	.	2f\	.
.	.	.	.	.	.	2F/	.
!	!	!	!	!	!	!LO:LB:g=original	!
*	*	*	*	*	*ij	*	*
1D	.	1F	.	2d\	San-	2A/	.
.	.	.	.	1f\	.	2B-y/	.
*Xlig	*	*Xlig	*	*	*	*	*
=22-	=22-	=22-	=22-	=22-	=22-	=22-	=22-
!LO:TX:t=P:problem=kreska pseudotaktowa	!LO:MO:mod=-ctus	!	!	!	!	!	!
1C	-ct(us)	1G	.	.	.	1c	.
.	.	.	.	2e\	.	.	.
!	!	!LO:TX:t=P:problem=kreska pseudotaktowa	!	!LO:TX:t=P:problem=kreska pseudotaktowa	!	!LO:TX:t=P:problem=kreska pseudotaktowa	!
!	!	!	!	!LO:TX:t=P:problem=rozdzielacz słów / znak oddechu:global	!	!	!
1.c	Do-	1F	-ctus	1f,<	-ctus	1A	-ctus
*	*	*	*	*	*Xij	*	*
!	!	!LO:PB:g=original	!	!	!	!	!
=23-	=23-	=23-	=23-	=23-	=23-	=23-	=23-
.	.	1A	Do-	1F	Do-	1f	Do-
2c\	-mi-	.	.	.	.	.	.
!LO:TX:t=P:problem=kreska pseudotaktowa	!LO:MO:mod=-nus	!	!	!	!	!	!
1c	-n(us)	1A	-mi-	1A	-mi-	1e	-mi-
=24-	=24-	=24-	=24-	=24-	=24-	=24-	=24-
!	!LO:MO:mod=De-	!LO:TX:t=P:problem=kreska pseudotaktowa	!LO:MO:mod=-nus	!LO:TX:t=P:problem=kreska pseudotaktowa	!LO:MO:mod=-nus	!LO:TX:t=P:problem=kreska pseudotaktowa	!LO:MO:mod=-nus
2d\	DE-	1F	-n(us)	1A	-n(us)	1f	-n(us)
1c	.	.	.	.	.	.	.
!	!	!	!LO:MO:mod=De-	!	!	!	!
.	.	1A	DE-	1c	De-	1e	De-
!LO:TX:t=P:problem=kreska pseudotaktowa	!	!	!	!	!	!	!
2A\	.	.	.	.	.	.	.
=25-	=25-	=25-	=25-	=25-	=25-	=25-	=25-
*lig	*	*	*	*	*	*	*
!	!LO:MO:mod=-us	!LO:TX:t=P:problem=kreska pseudotaktowa	!LO:MO:mod=-us	!	!	!LO:TX:t=P:problem=kreska pseudotaktowa	!
1F	-US	1c	-US	2A/	-us	1f	-us
.	.	.	.	1c	Sab-	.	.
1D	.	1.d	Sab-	.	.	1a	Sab-
.	.	.	.	4Bn/	.	.	.
.	.	.	.	4A/	.	.	.
*Xlig	*	*	*	*	*	*	*
=26-	=26-	=26-	=26-	=26-	=26-	=26-	=26-
2.G\	Sab-	.	.	2.Bn/	.	2g\	.
!	!	!LO:MO:mod=*null:null	!	!	!	!	!
*	*	*2\right	*	*	*	*	*
.	.	2d\	-ba-	.	.	2g\	-ba-
4G\	-ba-	.	.	4B/	-ba-	.	.
!LO:N:vis=0	!LO:MO:mod=-oth.	!LO:N:vis=0	!	!LO:N:vis=0	!	!LO:N:vis=0	!
1C;	-oth	1c;	-oth.	1c;	-oth.	1e;	-oth.
!	!	!	!	!LO:LB:g=original	!	!	!
=27||	=27||	=27||	=27||	=27||	=27||	=27||	=27||
!LO:MO:mod=*null:null	!	!LO:MO:mod=*null:null	!	!LO:MO:mod=*null:null	!	!LO:MO:mod=*null:null	!
*M2/1	*	*M2/1	*	*M2/1	*	*M2/1	*
*met(C|)	*	*met(C|)	*	*met(C|)	*	*met(C|)	*
1F	Ple-	1f	Ple-	1A	Ple-	1c	Ple-
!	!	!LO:TX:t=P:problem=kreska pseudotaktowa	!	!	!	!	!
1D	-ni	1f	-ni	2A/	-ni	1d	-ni
!	!	!	!	!LO:TX:t=P:problem=kreska pseudotaktowa	!	!	!
.	.	.	.	2B-/	.	.	.
=28-	=28-	=28-	=28-	=28-	=28-	=28-	=28-
!	!	!LO:TX:t=P:problem=kreska pseudotaktowa	!	!	!	!LO:TX:t=P:problem=kreska pseudotaktowa	!
2C,</	sunt	1e	sunt	1c	sunt	1e	sunt
1c	cae-	.	.	.	.	.	.
!	!	!	!	!LO:TX:t=P:problem=kreska pseudotaktowa	!	!	!
.	.	1d	cae-	1G	cae-	1g	cae-
!LO:SIC:s=2Bni	!	!	!	!	!	!	!
2B-\	.	.	.	.	.	.	.
=29-	=29-	=29-	=29-	=29-	=29-	=29-	=29-
*custos:C	*	*	*	*	*	*	*
!LO:TX:t=P:problem=kreska pseudotaktowa	!	!LO:TX:t=P:problem=kreska pseudotaktowa	!	!	!	!	!
1c	-li	1e	-li	1c	-li	1e	-li
!LO:LB:g=original	!	!	!	!	!	!	!
*lig	*	*lig	*	*	*	*	*
1C	et	1g	et	2G/	et	2e\	et
.	.	.	.	2E/	ter-	1c\	.
=30-	=30-	=30-	=30-	=30-	=30-	=30-	=30-
1D	.	1f	.	1F	.	.	.
.	.	.	.	.	.	2Bn/	.
*	*	*Xlig	*	*	*	*	*
*	*	*custos:d	*	*	*	*	*
!	!	!	!	!	!	!LO:TX:t=P:problem=kreska pseudotaktowa	!
!LO:TX:t=P:problem=kreska pseudotaktowa	!	!LO:TX:t=P:problem=kreska pseudotaktowa	!	!	!	!	!
1C	.	1e	.	2G/	.	2c/	.
.	.	.	.	1c\	.	1g\	ter-
*Xlig	*	*	*	*	*	*	*
!	!	!LO:LB:g=original	!	!	!	!	!
=31-	=31-	=31-	=31-	=31-	=31-	=31-	=31-
1G	ter-	1d	ter-	.	.	.	.
!	!	!	!	!	!	!LO:TX:t=P:problem=kreska pseudotaktowa	!
.	.	.	.	2Bn/	.	2g\	.
!	!	!	!	!	!	!LO:LB:g=original	!
!	!	!LO:TX:t=P:problem=kreska pseudotaktowa	!	!LO:TX:t=P:problem=kreska pseudotaktowa	!	!	!
2C/	-ra	0c	-ra	1c	-ra	2e\	-ra
1F\	glo-	.	.	.	.	1a\	glo-
=32-	=32-	=32-	=32-	=32-	=32-	=32-	=32-
.	.	.	.	2F/	glo-	.	.
!	!	!	!	!	!	!LO:TX:t=P:problem=kreska pseudotaktowa	!
2E/	.	.	.	2G/	.	2g\	.
*	*	*lig	*	*	*	*	*
2.D/	.	1f	glo-	2A/	.	2f\	.
.	.	.	.	2B-/	.	2d\	.
!LO:TX:t=P:problem=kreska pseudotaktowa	!	!	!	!	!	!	!
4D/	-ri-	.	.	.	.	.	.
=33-	=33-	=33-	=33-	=33-	=33-	=33-	=33-
!	!	!	!	!	!	!LO:TX:t=P:problem=kreska pseudotaktowa	!
2C/	-a	1e	.	1c	.	1g	.
1c	glo-	.	.	.	.	.	.
*	*	*Xlig	*	*	*	*	*
!	!	!	!	!LO:TX:t=P:problem=kreska pseudotaktowa	!	!	!
.	.	1d	-ri-	1d	.	2f\	.
2B-\	.	.	.	.	.	2d\	.
=34-	=34-	=34-	=34-	=34-	=34-	=34-	=34-
!	!	!LO:TX:t=P:problem=kreska pseudotaktowa	!	!	!	!	!
1A	.	1A	-a	1c	.	2e\	.
.	.	.	.	.	.	2f\	.
*	*	*lig	*	*	*	*	*
!	!	!	!	!	!	!LO:TX:t=P:problem=kreska pseudotaktowa	!
2.G\	.	1d	glo-	1Bn	-ri-	1g	.
4G\	-ri-	.	.	.	.	.	.
=35-	=35-	=35-	=35-	=35-	=35-	=35-	=35-
*	*	*	*	*	*	*lig	*
!LO:TX:t=P:problem=kreska pseudotaktowa	!	!	!	!LO:TX:t=P:problem=kreska pseudotaktowa	!	!	!
1C	-a	1c	.	1c	-a	1e	.
*lig	*	*Xlig	*	*	*	*	*
*	*	*lig	*	*	*	*	*
1F	glo-	1A	.	2c/	glo-	1c	.
.	.	.	.	1A/	.	.	.
*	*	*	*	*	*	*Xlig	*
=36-	=36-	=36-	=36-	=36-	=36-	=36-	=36-
1D	.	1F	.	.	.	1d	-ri-
.	.	.	.	2F/	.	.	.
*Xlig	*	*Xlig	*	*	*	*	*
!	!	!	!	!LO:LB:g=original	!	!	!
*	*	*lig	*	*	*	*	*
!	!	!	!	!LO:TX:t=P:problem=kreska pseudotaktowa	!	!	!
!	!	!	!	!	!	!LO:TX:t=P:problem=kreska pseudotaktowa	!
1D	.	1A	-ri-	1F	.	1f	-a
=37-	=37-	=37-	=37-	=37-	=37-	=37-	=37-
*lig	*	*	*	*	*	*	*
1C	.	1c	.	1G	-ri-	1e	glo-
*	*	*Xlig	*	*	*	*	*
*	*	*lig	*	*	*	*	*
!	!	!	!	!LO:TX:t=P:problem=kreska pseudotaktowa	!	!LO:TX:t=P:problem=kreska pseudotaktowa	!
1BB-	.	1d	-a	1B-	-a	1f	.
*Xlig	*	*	*	*	*	*	*
=38-	=38-	=38-	=38-	=38-	=38-	=38-	=38-
*	*	*	*	*lig	*	*	*
1C	.	1c	.	1G	glo-	2e\	.
.	.	.	.	.	.	1c	.
*	*	*Xlig	*	*	*	*	*
*	*	*lig	*	*	*	*	*
1D	.	1f	tu-	1F	.	.	.
!	!	!	!	!	!	!LO:TX:t=P:problem=kreska pseudotaktowa	!
.	.	.	.	.	.	2B-/	.
*	*	*	*	*Xlig	*	*	*
=39-	=39-	=39-	=39-	=39-	=39-	=39-	=39-
2C/	.	1e	.	1c	.	1c	.
1c	-ri-	.	.	.	.	.	.
*	*	*Xlig	*	*	*	*	*
*	*	*lig	*	*	*	*	*
!	!	!	!	!LO:TX:t=P:problem=kreska pseudotaktowa	!	!	!
.	.	1d	.	1G	.	1d	-ri-
2B-\	.	.	.	.	.	.	.
!LO:LB:g=original	!	!	!	!	!	!	!
=40-	=40-	=40-	=40-	=40-	=40-	=40-	=40-
!LO:TX:t=P:problem=kreska pseudotaktowa	!	!	!	!	!	!LO:TX:t=P:problem=kreska pseudotaktowa	!
1A,<	-a	1c	.	1c	.	1e	-a
*lig	*	*Xlig	*	*	*	*	*
*	*	*lig	*	*	*	*	*
1F	tu-	1A	.	2c/	.	2f\	tu-
.	.	.	.	1A/	-ri-	2c\	.
=41-	=41-	=41-	=41-	=41-	=41-	=41-	=41-
1D	.	1F	.	.	.	2d\	.
.	.	.	.	2B-/	-a	1f	.
*Xlig	*	*Xlig	*	*	*	*	*
!	!	!	!	!LO:TX:t=P:problem=kreska pseudotaktowa	!	!	!
1C	.	1G	.	1c	tu-	.	.
.	.	.	.	.	.	2e\	.
=42-	=42-	=42-	=42-	=42-	=42-	=42-	=42-
!	!LO:MO:mod=-a.	!	!LO:MO:mod=-a.	!	!LO:MO:mod=-a.	!	!LO:MO:mod=-a.
0F;	-â.	0F;	-a	0c;	-â.	0f;	-a
!	!	!LO:LB:g=original	!	!	!	!LO:LB:g=original	!
=43||	=43||	=43||	=43||	=43||	=43||	=43||-	=43||-
*>B	*	*>B	*	*>B	*	*>B	*
*k[b-]	*	*k[b-]	*	*k[b-]	*	*k[b-]	*
*M2/1	*	*M2/1	*	*M2/1	*	*M2/1	*
*met(C|)	*	*met(C|)	*	*met(C|)	*	*met(C|)	*
*mmet(c|)	*	*mmet(c|)	*	*mmet(c|)	*	*mmet(c|)	*
*lig	*	*	*	*	*	*lig	*
!	!	!LO:TX:t=P:problem=w źródle inicjał O na początku pięciolinii	!	!	!	!	!
!LO:TX:t=P:problem=w źródle inicjał O na początku części	!	!	!	!LO:TX:t=P:problem=w źródle inicjał O na początku części	!	!	!
!	!	!	!	!	!	!LO:TX:t=P:problem=w źródle inicjał O na początku pięciolinii	!
1F	O-	0f	O-	1A	O-	1c	O-
1D	.	.	.	2A/	.	1d	.
!	!	!	!	!LO:TX:t=P:problem=kreska pseudotaktowa	!	!	!
.	.	.	.	2B-/	.	.	.
*Xlig	*	*	*	*	*	*Xlig	*
=44-	=44-	=44-	=44-	=44-	=44-	=44-	=44-
*	*	*lig	*	*	*	*lig	*
2C/	-san-	1e	-san-	1c	-san-	1e	.
1c	.	.	.	.	.	.	.
.	.	1d	.	1G	.	1g	.
!LO:SIC:s=2Bni	!	!	!	!	!	!	!
2B-\	.	.	.	.	.	.	.
*	*	*Xlig	*	*	*	*Xlig	*
=45-	=45-	=45-	=45-	=45-	=45-	=45-	=45-
!LO:TX:t=P:problem=kreska pseudotaktowa	!	!	!	!	!	!LO:TX:t=P:problem=kreska pseudotaktowa	!
1c	-na	1e	.	1c	.	1e	.
*	*	*lig	*	*	*	*	*
1C	O-	1g	.	2G/	.	2e\	-san-
.	.	.	.	2E/	.	1c\	.
=46-	=46-	=46-	=46-	=46-	=46-	=46-	=46-
*lig	*	*	*	*	*	*	*
!	!	!	!	!LO:TX:t=P:problem=kreska pseudotaktowa	!	!	!
1D	.	1f	.	1F	.	.	.
.	.	.	.	.	.	2Bn/	.
*	*	*Xlig	*	*	*	*	*
!	!	!	!	!LO:LB:g=original	!	!	!
!	!	!	!	!	!	!LO:TX:t=P:problem=kreska pseudotaktowa	!
1C	.	1e	.	2G/	.	2c\	-na
*	*	*	*	*	*	*	*ij
.	.	.	.	1c\	.	1g\	O-
*Xlig	*	*	*	*	*	*	*
=47-	=47-	=47-	=47-	=47-	=47-	=47-	=47-
!LO:TX:t=P:problem=kreska pseudotaktowa	!	!	!	!	!	!	!
1G	-san-	1d	.	.	.	.	.
!	!	!	!	!	!	!LO:TX:t=P:problem=kreska pseudotaktowa	!
.	.	.	.	2Bn/	.	2g\	-san-
!	!	!LO:TX:t=P:problem=kreska pseudotaktowa	!	!LO:TX:t=P:problem=kreska pseudotaktowa	!	!	!
!	!	!	!	!	!	!LO:TX:t=P:problem=rozdzielacz słów / znak oddechu:global	!
2C,</	-na	0c	-na	1c,<	-na	2e,<\	-na
*	*	*	*	*	*	*	*Xij
1F\	in	.	.	.	.	1a\	in
=48-	=48-	=48-	=48-	=48-	=48-	=48-	=48-
.	.	.	.	2F/	in	.	.
!	!	!	!	!	!	!LO:TX:t=P:problem=kreska pseudotaktowa	!
2E/	ex-	.	.	2G/	ex-	2g\	ex-
*custos:C	*	*	*	*	*	*	*
!LO:TX:t=P:problem=kreska pseudotaktowa	!	!	!	!	!	!	!
1D	-cel-	1f	in	2A/	-cel-	2f\	-cel-
.	.	.	.	2B-/	.	2d\	.
!LO:LB:g=original	!	!	!	!	!	!	!
=49-	=49-	=49-	=49-	=49-	=49-	=49-	=49-
2C/	.	1e	ex-	1c	.	1g	.
1c	.	.	.	.	.	.	.
*	*	*lig	*	*	*	*	*
!	!	!	!	!LO:TX:t=P:problem=kreska pseudotaktowa	!	!	!
.	.	1d	-cel-	1d	.	2f\	.
!	!	!	!	!	!	!LO:TX:t=P:problem=kreska pseudotaktowa	!
2B-\	.	.	.	.	.	2d\	.
=50-	=50-	=50-	=50-	=50-	=50-	=50-	=50-
1A	.	1A	.	1c	.	2e\	.
.	.	.	.	.	.	2f\	.
*	*	*Xlig	*	*	*	*	*
*	*	*lig	*	*	*	*	*
!LO:TX:t=P:problem=kreska pseudotaktowa	!	!	!	!	!	!	!
1G	.	1d	.	1Bn	.	1g	.
=51-	=51-	=51-	=51-	=51-	=51-	=51-	=51-
*	*	*	*	*	*	*lig	*
!	!	!	!	!LO:TX:t=P:problem=kreska pseudotaktowa	!	!	!
1C	.	1c	.	1c	.	1e	.
*	*	*Xlig	*	*	*	*	*
*	*	*lig	*	*	*	*	*
!	!	!	!	!	!	!LO:TX:t=P:problem=kreska pseudotaktowa	!
1F	.	1A	.	2c/	.	1c	.
.	.	.	.	1A/	.	.	.
*	*	*	*	*	*	*Xlig	*
!	!	!	!	!	!	!LO:LB:g=original	!
=52-	=52-	=52-	=52-	=52-	=52-	=52-	=52-
0D	.	1F	.	.	.	1d	.
.	.	.	.	2F/	.	.	.
*	*	*Xlig	*	*	*	*	*
*	*	*lig	*	*	*	*	*
!	!	!	!	!LO:TX:t=P:problem=kreska pseudotaktowa	!	!	!
.	.	1A	.	1F	.	1f	.
=53-	=53-	=53-	=53-	=53-	=53-	=53-	=53-
*lig	*	*	*	*	*	*lig	*
*	*	*custos:d	*	*	*	*	*
!	!	!LO:TX:t=P:problem=kreska pseudotaktowa	!	!	!	!	!
1C	.	1c	.	1G	.	1e	.
*	*	*Xlig	*	*	*	*	*
!	!	!LO:LB:g=original	!	!	!	!	!
*	*	*lig	*	*	*	*	*
!	!	!	!	!LO:SIC:s=1B-	!	!LO:TX:t=P:problem=kreska pseudotaktowa	!
1BB-	.	1d	.	1B-X	.	1f	.
*Xlig	*	*	*	*	*	*Xlig	*
=54-	=54-	=54-	=54-	=54-	=54-	=54-	=54-
1C	.	1c	.	1G	.	2e\	.
.	.	.	.	.	.	1c	.
*	*	*Xlig	*	*	*	*	*
*	*	*lig	*	*	*	*	*
!LO:TX:t=P:problem=kreska pseudotaktowa	!	!	!	!	!	!	!
!	!	!	!	!LO:TX:t=P:problem=kreska pseudotaktowa	!	!	!
1D	.	1f	.	1F	.	.	.
!	!	!	!	!	!	!LO:TX:t=P:problem=kreska pseudotaktowa	!
.	.	.	.	.	.	2Bn/	-sis
=55-	=55-	=55-	=55-	=55-	=55-	=55-	=55-
2C,</	-sis	1e	.	1c	.	1c	O-
1c	in	.	.	.	.	.	.
*	*	*Xlig	*	*	*	*	*
*	*	*lig	*	*	*	*	*
.	.	1d	.	1G	.	1d	-san-
2B-\	ex-	.	.	.	.	.	.
=56-	=56-	=56-	=56-	=56-	=56-	=56-	=56-
!	!	!	!	!LO:TX:t=P:problem=kreska pseudotaktowa	!	!LO:TX:t=P:problem=kreska pseudotaktowa	!
1A	-cel-	1c	.	1c	.	1e	-na
*	*	*Xlig	*	*	*	*	*
!	!	!	!	!LO:LB:g=original	!	!	!
*	*	*lig	*	*	*	*	*
1F	.	1A	.	2c/	.	2f\	in
.	.	.	.	1A/	.	2c\	.
=57-	=57-	=57-	=57-	=57-	=57-	=57-	=57-
*lig	*	*	*	*	*	*	*
1D	.	1F	.	.	.	2d\	ex-
.	.	.	.	2B-/	.	1g	-cel-
*	*	*Xlig	*	*	*	*	*
1C	.	1G	.	1c	.	.	.
.	.	.	.	.	.	2e\	.
*Xlig	*	*	*	*	*	*	*
=58-	=58-	=58-	=58-	=58-	=58-	=58-	=58-
!	!	!	!	!	!	!	!LO:MO:mod=-sis.
0F;	-sis.	0F;	-sis.	0c;	-sis.	0f;	-sis
!LO:LB:g=original	!	!	!	!	!	!LO:LB:g=original	!
=59||	=59||	=59||	=59||	=59||	=59||	=59||	=59||
*>C	*	*>C	*	*>C	*	*>C	*
*k[b-]	*	*k[b-]	*	*k[b-]	*	*k[b-]	*
*M2/1	*	*M2/1	*	*M2/1	*	*M2/1	*
*met(C|)	*	*met(C|)	*	*met(C|)	*	*met(C|)	*
*mmet(c|)	*	*mmet(c|)	*	*mmet(c|)	*	*mmet(c|)	*
*	*	*	*	*	*	*lig	*
!LO:TX:t=P:problem=w źródle inicjał B na początku pięciolinii	!	!	!	!	!	!	!
!	!	!LO:TX:t=P:problem=w źródle inicjał B na początku części	!	!LO:TX:t=P:problem=w źródle inicjał B na początku części	!	!	!
!	!	!	!	!	!	!LO:TX:t=P:problem=w źródle inicjał B na początku pięciolinii	!
1F	Be-	1f	Be-	1A	Be-	1c	Be-
*	*	*lig	*	*	*	*	*
1D	-ne-	1f	-ne-	2A/	-ne-	1d	.
.	.	.	.	2B-/	.	.	.
*	*	*	*	*	*	*Xlig	*
=60-	=60-	=60-	=60-	=60-	=60-	=60-	=60-
*	*	*	*	*	*	*lig	*
!	!	!	!	!LO:TX:t=P:problem=kreska pseudotaktowa	!	!	!
2C/	-di-	1e	.	1c	-di-	1e	-ne-
1c	.	.	.	.	.	.	.
*	*	*Xlig	*	*	*	*	*
!	!	!	!	!LO:TX:t=P:problem=kreska pseudotaktowa	!	!	!
.	.	1d	.	1G	-ctus	1g	.
!LO:SIC:s=2Bni	!	!	!	!	!	!	!
2B-\	.	.	.	.	.	.	.
*	*	*	*	*	*	*Xlig	*
=61-	=61-	=61-	=61-	=61-	=61-	=61-	=61-
*	*	*lig	*	*	*	*	*
!LO:TX:t=P:problem=kreska pseudotaktowa	!	!	!	!	!	!	!
!	!	!	!	!	!	!LO:TX:t=P:problem=kreska pseudotaktowa	!
1c	-ctus	1e	-di-	1c	qui	1e	-di-
!	!LO:MO:mod=qui	!	!	!	!	!	!
1C	Qui	1g	.	2G/	.	2e,<\	-ctus
.	.	.	.	2E/	ve-	1c\	Be-
*	*	*Xlig	*	*	*	*	*
=62-	=62-	=62-	=62-	=62-	=62-	=62-	=62-
*	*	*lig	*	*	*	*	*
!LO:TX:t=P:problem=kreska pseudotaktowa	!	!	!	!	!	!	!
1D	.	1f	.	1F	.	.	.
!	!	!	!	!	!	!LO:SIC:s=2Bni	!
.	.	.	.	.	.	2B-/	.
*	*	*custos:d	*	*	*	*	*
!	!	!LO:TX:t=P:problem=kreska pseudotaktowa	!	!	!	!	!
1C	.	1e	.	2G/	.	2c/	-ne-
.	.	.	.	1c\	.	1g\	-di-
*	*	*Xlig	*	*	*	*	*
!	!	!LO:LB:g=original	!	!	!	!	!
=63-	=63-	=63-	=63-	=63-	=63-	=63-	=63-
1G	ve-	1d	.	.	.	.	.
!	!	!	!	!	!	!LO:TX:t=P:problem=kreska pseudotaktowa	!LO:MO:mod=-ctus
.	.	.	.	2Bn/	.	2g,<\	-ct(us)
!	!	!LO:TX:t=P:problem=kreska pseudotaktowa	!	!LO:TX:t=P:problem=kreska pseudotaktowa	!	!	!
2C/	.	0c	-ctus	1c	-nit	2e\	qui
!	!	!	!	!	!	!	!LO:MO:mod=ve-
1F\	.	.	.	.	.	1a\	Ve-
=64-	=64-	=64-	=64-	=64-	=64-	=64-	=64-
.	.	.	.	2F/	in	.	.
!LO:TX:t=P:problem=kreska pseudotaktowa	!	!	!	!	!	!LO:TX:t=P:problem=kreska pseudotaktowa	!
2E/	.	.	.	2G/	.	2g\	.
*	*	*lig	*	*	*	*	*
!	!	!	!LO:MO:mod=qui	!	!LO:MO:mod=no-	!	!
1D	.	1f	Qui	2A/	No-	2f\	.
*	*	*	*	*custos:c	*	*	*
!	!	!	!	!LO:TX:t=P:problem=kreska pseudotaktowa	!	!	!
.	.	.	.	2B-/	.	2d\	.
!	!	!	!	!LO:LB:g=original	!	!	!
=65-	=65-	=65-	=65-	=65-	=65-	=65-	=65-
!	!	!LO:TX:t=P:problem=kreska pseudotaktowa	!	!	!	!LO:TX:t=P:problem=kreska pseudotaktowa	!
2C,</	-nit	1e	.	1c	.	1g	.
1c	in	.	.	.	.	.	.
*	*	*Xlig	*	*	*	*	*
.	.	1d	ve-	1d	-mi-	2f\	.
!LO:TX:t=P:problem=kreska pseudotaktowa	!	!	!	!	!	!	!
2B-\	.	.	.	.	.	2d\	.
=66-	=66-	=66-	=66-	=66-	=66-	=66-	=66-
!	!LO:MO:mod=no-	!LO:TX:t=P:problem=kreska pseudotaktowa	!	!LO:TX:t=P:problem=kreska pseudotaktowa	!	!	!
1A	No-	1A	-nit	1c	-ne	2e\	.
.	.	.	.	.	.	2f\	.
!	!	!LO:TX:t=P:problem=kreska pseudotaktowa	!	!LO:SIC:s=1Bni	!	!LO:TX:t=P:problem=kreska pseudotaktowa	!
1G	.	1d	in	1B-	Do-	1g	.
!	!	!	!	!	!	!LO:LB:g=original	!
=67-	=67-	=67-	=67-	=67-	=67-	=67-	=67-
!	!	!	!	!	!	!LO:TX:t=P:problem=kreska pseudotaktowa	!
1C	.	1c	No-	1c	.	1e,<	-nit
!	!	!	!	!	!	!LO:TX:t=P:problem=kreska pseudotaktowa	!
2F/	.	1A	-mi-	2c/	.	1c	in
2F/	-mi-	.	.	1A/	.	.	.
=68-	=68-	=68-	=68-	=68-	=68-	=68-	=68-
!LO:TX:t=P:problem=kreska pseudotaktowa	!	!LO:TX:t=P:problem=kreska pseudotaktowa	!	!	!LO:MO:mod=no-	!	!
1D	-ne	1F	-ne	.	.	1d	No-
!	!	!	!	!LO:TX:t=P:problem=kreska pseudotaktowa	!	!	!
.	.	.	.	2F/	.	.	.
!LO:LB:g=original	!	!	!	!	!	!	!
*lig	*	*lig	*	*	*	*	*
1D	Do-	1A	Do-	1F	.	1f	.
=69-	=69-	=69-	=69-	=69-	=69-	=69-	=69-
1C	.	1c	.	1G	.	1e	-mi-
*	*	*Xlig	*	*	*	*	*
*	*	*lig	*	*	*	*	*
!	!	!	!	!LO:TX:t=P:problem=kreska pseudotaktowa	!	!LO:TX:t=P:problem=kreska pseudotaktowa	!
1BB-	.	1d	.	1B-	.	1f	-ne
*Xlig	*	*	*	*	*	*	*
=70-	=70-	=70-	=70-	=70-	=70-	=70-	=70-
1C	.	1c	.	1G	.	2e\	Do-
.	.	.	.	.	.	1c	.
*	*	*Xlig	*	*	*	*	*
*	*	*lig	*	*	*	*	*
!LO:TX:t=P:problem=kreska pseudotaktowa	!	!	!	!	!	!	!
1D	.	1f	.	1F	.	.	.
!	!	!	!	!	!	!LO:TX:t=P:problem=kreska pseudotaktowa	!
.	.	.	.	.	.	2Bn/	.
=71-	=71-	=71-	=71-	=71-	=71-	=71-	=71-
!	!	!	!	!LO:TX:t=P:problem=kreska pseudotaktowa	!	!	!
2C/	.	1e	.	1c	.	1c	.
1c	.	.	.	.	.	.	.
*	*	*Xlig	*	*	*	*	*
*	*	*lig	*	*	*	*	*
.	.	1d	.	1G	.	1d	.
!LO:TX:t=P:problem=kreska pseudotaktowa	!	!	!	!	!	!	!
2B-\	.	.	.	.	.	.	.
=72-	=72-	=72-	=72-	=72-	=72-	=72-	=72-
!	!	!	!	!LO:TX:t=P:problem=kreska pseudotaktowa	!	!LO:TX:t=P:problem=kreska pseudotaktowa	!
1A	.	1c	.	1c	.	1e	.
*	*	*Xlig	*	*	*	*	*
*	*	*lig	*	*	*	*	*
1F	.	1A	.	2c/	.	2f\	.
.	.	.	.	1A/	.	2c/	.
=73-	=73-	=73-	=73-	=73-	=73-	=73-	=73-
1D	.	1F	.	.	.	2d\	.
.	.	.	.	2B-/	.	1g	.
*	*	*Xlig	*	*	*	*	*
2.C/	.	2.G/	.	1c	-mi-	.	.
.	.	.	.	.	.	2e\	-mi-
4C/	-mi-	4G/	-mi-	.	.	.	.
=74-	=74-	=74-	=74-	=74-	=74-	=74-	=74-
0F;	-ni.	0F;	-ni.	0c;	-ni.	0f;	-ni.
!!LO:TX:a:i:t= :mod=Osanna da Capo
!LO:TX:b:Bi:t=Osanna \nda Capo:mod=	!	!LO:TX:b:Bi:t=Osanna da Capo:mod=	!	!LO:TX:b:Bi:t=Osanna da Capo:mod=	!	!LO:TX:b:Bi:t=Osanna da Capo:mod=	!
==	==	==	==	==	==	==	==
*-	*-	*-	*-	*-	*-	*-	*-
!!!system-decoration: [(*)]
!!!RDF**kern: < = below
!!!RDF**kern: i = editorial accidental
!!!filter-modern: shed -e "s/,//gk" | shed -e "s/:TX:t=P:/:tx:t=p:/L" | sic -sq | modori -m | autostem -r | tie -s | humtr -p | shed -e "s/-//B" | shed -e "s/^custos:/Xcustos:/I" | shed -k -e "s/[<>]//g"
!!!ENC: Anastazja Marusiak
!!!END: 2021-07-03
!!!EED: Wojciech Jakubiak-Danek
!!!EEV: 2021-07-27
!!!ENC-modern: Andrzej Kubiczek
!!!END-modern: 2022-06-18
